src/Dashboard/assets/charts/trend-black.svg

<svg width="19" height="12" viewBox="0 0 19 12" fill="none" xmlns="http://www.w3.org/2000/svg">
<path d="M18.0018 1C18.0112 0.93032 18.0112 0.85968 18.0018 0.79C17.9931 0.731289 17.9762 0.674074 17.9518 0.62C17.9253 0.571127 17.8953 0.524327 17.8618 0.48C17.8237 0.416753 17.7765 0.359469 17.7218 0.31L17.6018 0.24C17.544 0.196956 17.4799 0.163215 17.4118 0.14H17.2118C17.1508 0.080995 17.0797 0.0335575 17.0018 0H12.0018C11.7365 0 11.4822 0.105357 11.2947 0.292893C11.1071 0.48043 11.0018 0.734784 11.0018 1C11.0018 1.26522 11.1071 1.51957 11.2947 1.70711C11.4822 1.89464 11.7365 2 12.0018 2H14.8318L10.8318 6.71L6.51176 4.14C6.30714 4.0183 6.06582 3.97359 5.83118 4.01392C5.59655 4.05425 5.384 4.17696 5.23176 4.36L0.23176 10.36C0.147558 10.461 0.0841183 10.5777 0.0450739 10.7033C0.00602937 10.8289 -0.00785241 10.961 0.00422346 11.092C0.0162993 11.2229 0.0540956 11.3503 0.115448 11.4666C0.1768 11.5829 0.260502 11.6861 0.36176 11.77C0.541672 11.9191 0.768108 12.0005 1.00176 12C1.14867 12.0002 1.29383 11.9681 1.42691 11.9059C1.56 11.8437 1.67774 11.7529 1.77176 11.64L6.22176 6.3L10.4918 8.86C10.6943 8.98013 10.9327 9.02493 11.165 8.98651C11.3974 8.9481 11.6087 8.82893 11.7618 8.65L16.0018 3.7V6C16.0018 6.26522 16.1071 6.51957 16.2947 6.70711C16.4822 6.89464 16.7365 7 17.0018 7C17.267 7 17.5213 6.89464 17.7089 6.70711C17.8964 6.51957 18.0018 6.26522 18.0018 6V1Z" fill="#393F70"/>
</svg>

<svg width="24" height="24" viewBox="0 0 19 12" fill="none" xmlns="http://www.w3.org/2000/svg"><path d="M18.002 1c.01-.07.01-.14 0-.21a.642.642 0 00-.05-.17 1.108 1.108 0 00-.09-.14.753.753 0 00-.14-.17l-.12-.07a.692.692 0 00-.19-.1h-.2a.7.7 0 00-.21-.14h-5a1 1 0 100 2h2.83l-4 4.71-4.32-2.57a1 1 0 00-1.28.22l-5 6a1 1 0 001.195 1.546 1 1 0 00.345-.266l4.45-5.34 4.27 2.56a1 1 0 001.27-.21l4.24-4.95V6a1 1 0 102 0V1z" fill="#393F70"></path></svg>
